X:1
T:Flute Sonata in A Minor, HWV 374
T:G.F. Handel
%%score 1 { ( 2 3 4 ) | 5 }
L:1/8
M:3/4
K:C
V:1 treble nm="Flute" snm="Fl."
V:2 treble nm="Piano" snm="Pno."
V:3 treble 
V:4 treble 
V:5 bass 
V:1
 z2 e2 A2 | f>e f2 G2 | e>d e2 F2 | d>c d2 E2 | cB A^G AB | ^G6 | z2 e2 f2 | z2 d2 e2 | z2 c2 d2 | %9
 z2 B2 e2 | cB A4- | A2 ^f2 G>^F | G>B E2 e2- | e>^f ^d3 e | e2 b2 e2 | c'>b c'2 d2 | b>a b2 c2 | %17
 a>g a2 B2 | =g>b a3 b | b>e ^d3 e | e>A ^G3 A | A>d ^c3 d | d>=c B3 B | B>c A3 A | A>B ^G3 d | %25
 ^c>e =G3 g | ^f>a =c3 c | B>d =F3 f | e>d c3 c | c>d B3 B | B>c A3 a | a>b ^g3 a | a>^c d3 d | %33
 ^g3 b =g>d | d3 ^G A>B | E>c ^G3 A | A3 ^f f>A | ^G3 b b>d | c>a c'2 b>a | a2 z2 =f2 | e2 z2 a2 | %41
 ^g2 z2 c2 | _B>A ^G3 A | A2 z4 |] %44
V:2
 a4 ea/4g/4a/4g/4 | f>e d2 g2 | e>d c2 f2 | f>e d2 e/d/c/B/ | e2 f2 de/4d/4d/4e/4 | eTd eB cd | %6
 e>d ed/e/ f2 | g2 fe/d/ e2 | f2 ed/c/ d2 | e2 d>^G cd |{f} Te2{de} f2 ^f2 | ^f^d a2 ba | %12
 g>^f g2 e2 | B2 ^d2 f2 | e>d e2 z2 | z2 e2 ^f2 | z2 g2 a2 | z2{b} Ta2{ga} b2 | e2 ed c2 | %19
 [^FA^d]2 [FAB]2 [FA^d]2 | [Gce]2 [Be]2 [Bd]2 | [CFA]2 [^CG^c]2 [GAc]2 | [FAd]2 [GBd]2 ([FGB]2 | %23
 [EGB]2) [FAc]2 [Gcf]2 | [^DAB]2 [E^GB]2 [EBd]2 | [EA^c]2 [GA^c]2 [GAe]2 | %26
 [^FAd]2 [^FA^f]2 [A=cd]2 | d2 d4 | [EGc]2 [FAc]2 ef | dB/A/ BG e/d/c/B/ | [ABe]2 [EAc]2 [CEA]2 | %31
 c>d [E^GB]2 d2 | [Ad]2 [DFA]4 | [DE^GB]2 [DE^GB]4 | [DE^GB]2 [DE^GB]4 | ee e2 BB | %36
 [^FAB^d]2 ^d=c BA | e2 [de]2 [Be]2 | e/d/c/B/ cB/A/ [^GB]2 | AF ED A2 | BF ED AB/c/ | %41
 dB [^GBe]2 [Ace]2 | f2 [E^Gd]2 [DE=B]2 | [CEA]2 z4 |] %44
V:3
 e4 c2 | d2 A2 d2 | c2 G2 c2 | d2 G2 B2 | c2 c2 B2 | B4 AB | c2 c2 d2 | d2 d2 c2 | c2 c2 ^G2 | %9
 B2 B2 A2 | c2 c2 c2 | B2 ^f2 ^f2 | e>^d e2 B2 | G2 BA B2 | B2 B2 z2 | z2 c2 c2 | z2 d2 e2 | %17
 z2 ^f2 ^f2 | B2 A2 A2 | x6 | x6 | x6 | x6 | x6 | x6 | x6 | x6 | B2 B2 G(3F/G/F/ | G2 A2 cd | %29
 c4 B2 | x6 | A>B ^G2 B^G | x6 | x6 | x6 | !stemless!d!stemless!c B2 ^G!stemless!^G | A2 [AB]4 | %37
 B2 d2 B2 | A2 A2 ^G2 | E2 z2 F2 | E2 z2 E2 | ^G2 z4 | _B2 z4 | x6 |] %44
V:4
 c4 A2 | A2 F2 GA/B/ | G2 E2 F2 | G2 F2 E2 | A2 A2 A2 | ^G4 E2 | A2 A2 A2 | G2 G2 G2 | F2 F2 F2 | %9
 E2 E2 E2 | A2 A2 A2 | A2 B2 ^d2 | B2 B2 G2 | E2 z2 A2 | E2 ^G2 z2 | z2 A2 A2 | z2 B2 c2 | %17
 z2 c2 B2 | G/E/F/G/ E2 E2 | x6 | G2 ^GE ^GE | x6 | x6 | x6 | x6 | x6 | x6 | G2 F4 | x6 | G4 E2 | %30
 x6 | E4 E2 | D>E z4 | x6 | x6 | BA ^G2 ED | ^F2 ^F4 | ^GE ^GE ^GE | E z E z ED | C2 z2 CD | %40
 B,2 z2 C2 | E2 z4 | FA z4 | x6 |] %44
V:5
 A,,4 A,2 | D,4 B,,2 | C,4 A,,2 | B,,4 ^G,,2 | A,,2 F,,4 | E,,2 B,2 E,2 | C>B, C2 D,2 | %7
 B,>A, B,2 C,2 | A,>G, A,2 B,,2 | ^G,>^F, G,2 E,2 | A,3 =G, ^F,>E, | ^D,4 B,,2 | E,3 ^F, G,A, | %13
 B,2 B,2 A,2 | ^G,2 E,4 | z2 A,2 ^F,2 | z2 G,2 E,2 | z2 ^F,2 ^D,2 | E,2 C,4 | B,,2 B,2 B,,2 | %20
 C,>D, E,4 | =F,2 E,4 | F,2 G,4 | C,2 F,4 | B,,2 E,4 | A,4 ^C,2 | D,4 ^F,,2 | G,,4 B,,2 | %28
 C,3 D, E,F, | G,4 ^G,2 | A,2 A,,>B,, C,>D, | E,2 E,,4 | F,,6 | E,,2 z4 | E,2 z4 | ^G,,A,, E,4 | %36
 ^D,6 | =D,6 | C,>D, E,2 E,,2 | A,,2 z2 A,,2 | ^G,,2 z2 =C,2 | B,,2 z2 A,,2 | D,2 E,2 E,,2 | %43
 A,,2 z4 |] %44

